markets/WLD.svg

<svg width="42" height="42" viewBox="0 0 42 42" fill="none" xmlns="http://www.w3.org/2000/svg">
<circle cx="21" cy="21" r="21" fill="white"/>
<path d="M40.494 13.2005C39.9363 11.8061 39.2297 10.4861 38.3931 9.24037C34.6189 3.66268 28.2231 0 20.9907 0C9.38911 0 0 9.4077 0 20.9907C0 32.5923 9.4077 42 20.9907 42C28.2417 42 34.6189 38.3373 38.3931 32.7596C39.2297 31.5325 39.9177 30.2125 40.494 28.8181C41.4608 26.4011 42 23.761 42 21.0093C41.9814 18.2576 41.4608 15.6175 40.494 13.2005ZM37.6866 18.8712H13.6467C14.0186 17.5697 14.7065 16.417 15.6361 15.506C17.0491 14.093 19.0013 13.2191 21.158 13.2191H35.9203C36.8313 14.9482 37.4263 16.8446 37.6866 18.8712ZM20.8791 4.07171C25.6574 4.07171 29.9894 6.06109 33.0757 9.25896H21.6786C18.425 9.25896 15.4874 10.579 13.3679 12.6985C11.7131 14.3533 10.5604 16.4728 10.1328 18.8712H4.09031C5.13147 10.5232 12.2523 4.07171 20.8791 4.07171ZM20.8791 37.9655C12.2523 37.9655 5.13147 31.5139 4.07171 23.166H10.1142C11.1182 28.6321 15.915 32.7782 21.6786 32.7782H33.0757C30.008 35.9761 25.676 37.9655 20.8791 37.9655ZM21.158 28.8367C17.5883 28.8367 14.5764 26.4382 13.6467 23.166H37.6866C37.4263 25.1926 36.8127 27.089 35.9203 28.8367H21.158Z" fill="#1E1E1C"/>
</svg>

<svg xmlns="http://www.w3.org/2000/svg" width="42" height="42" fill="none"><circle cx="21" cy="21" r="21" fill="#fff"/><path fill="#1E1E1C" d="M40.494 13.2a21.255 21.255 0 0 0-2.1-3.96C34.618 3.663 28.223 0 20.99 0 9.389 0 0 9.408 0 20.99 0 32.593 9.408 42 20.99 42c7.252 0 13.629-3.663 17.403-9.24a21.62 21.62 0 0 0 2.101-3.942A21.004 21.004 0 0 0 42 21.01a21.382 21.382 0 0 0-1.506-7.809Zm-2.807 5.671h-24.04a7.631 7.631 0 0 1 1.99-3.365 7.784 7.784 0 0 1 5.521-2.287H35.92a16.598 16.598 0 0 1 1.767 5.652Zm-16.808-14.8c4.778 0 9.11 1.99 12.197 5.188H21.679c-3.254 0-6.192 1.32-8.311 3.44a11.572 11.572 0 0 0-3.235 6.172H4.09c1.041-8.348 8.162-14.8 16.79-14.8Zm0 33.894c-8.627 0-15.748-6.451-16.807-14.799h6.042c1.004 5.466 5.801 9.612 11.565 9.612h11.397a16.85 16.85 0 0 1-12.197 5.188Zm.279-9.128a7.813 7.813 0 0 1-7.511-5.671h24.04a17.257 17.257 0 0 1-1.767 5.67H21.158Z"/></svg>
